X:1
T:8 Lieder and Romances, Op.14
T:Vom verwundeten Knaben
T:2. Vom verwundeten Knaben
T:Johannes Brahms
T:Volkslied
T:8 Lieder and Romances, Op.14
T:OpenScore (CC0)
T:OpenScore (CC0)
C:Johannes Brahms
Z:Volkslied
Z:OpenScore (CC0)
%%score ( 1 2 ) { ( 3 5 ) | ( 4 6 ) }
L:1/8
Q:1/4=110
M:2/4
K:C
V:1 treble nm="Singstimme\nVoice"
V:2 treble 
V:3 treble nm="Pianoforte"
V:5 treble 
V:4 bass 
V:6 bass 
V:1
"^Andantino" E |: A2 c2 | B2 e e | (cB) A2 | B4 | z2 ^F2 | B2 e2 | (cB) A2 | B2 z B | c2 d2 | %10
w: 1. Es |wollt ein|Mäd- chen *|früh * auf-|stehn|und|in den|grü- * nen|Wald spa-|zie- ren|
w: |2.  als sie|nun in den|grü- nen Wald|kam,|da|fand sie|ei- * nen|* ver-|wund'- ten|
w: |3.  Knab,  der|war von *|Blut * so|rot,|und|als sie|sich * ver-|wandt, war|er schon|
 (c2 e2-) | e4 | z4 |1,2 z2 z E :|3 z4 || z2!f! e2 | d2 c2 | d2 B2 | c2 A2 | B2 G2 | B2 c2 | %21
w: gehn. _|_||2. Und||4. Wo|krieg ich|nun zwei|Leid- fräu-|lein, die|mein feins|
w: Knab'n. _|_||3. Der||||||||
w: tot. _|_||||||||||
 d2 d2 | e2 c2 | d4 | z2!f! d2 | c2 _B2 | c2 A2 | _B2 G2 | A2 F2 | A2 _B2 | c2 c2 | d2 _B2 | c4 | %33
w: Lieb zu|Gra- be|wein'n?|Wo|krieg ich|nun sechs|Reu- ter-|knab'n, die|mein feins|Lieb zu|Gra- be|trag'n?|
w: ||||||||||||
w: ||||||||||||
 z2!p! A2 || d2 f2 | e2 ^c2 | d2 d2 | e4 | z2 z A | B2 e2 | (cB) A2 | z2 z B | c2 d2 | (c2 e2-) | %44
w: Wie|lang soll|ich denn|trau- ern|gehn?|Bis|al- le|Was- * ser|zu-|sam- men|gehn? _|
w: |||||||||||
w: |||||||||||
 e4 | z4 | z2 E2 || A2 c2 | B2 e2 | (cB) A3/2 A/ | B4 | z2 ^F2 | B2 e2 | (cB) A2 | z2 z B | c2 d2 | %56
w: _||Ja|al- le|Was- ser|gehn * nicht zu-|sam'n,|so|wird mein|Trau- * ern|kein|En- de|
w: ||||||||||||
w: ||||||||||||
 (c2 e2-) | e4 | z4 | z4 | z4 | z4 |] %62
w: han. _|_|||||
w: ||||||
w: ||||||
V:2
 x |: x4 | x2 e2 | c B x2 | x4 | x4 | x4 | x4 | z2 x x | x4 | x4 | x4 | x4 |1,2 x4 :|3 x4 || x4 | %16
 x4 | x4 | x4 | x4 | x4 | x4 | x4 | x4 | x4 | x4 | x4 | x4 | x4 | x4 | x4 | x4 | x4 | x4 || x4 | %35
 x4 | x4 | x4 | x4 | x4 | x4 | x4 | x4 | x4 | x4 | x4 | x4 || x4 | x4 | x4 | x4 | x4 | x4 | x4 | %54
 x4 | x4 | x4 | x4 | x4 | x4 | x4 | x4 |] %62
V:3
 z |: ([EA]2 [Ec]2 | [EB]2 [^Ge]2 | [Ec]2 [EA]2 | [^GB]2) ([^D^F]2 | [E^GB]2) ([^D^F]2 | %6
 [EB]2 [^Ge]2 | [Ec]2 [EA-]2) | [FAB-]2 [E^GB]2 | [EAc]2 [FAd]2 | [EAc]4- | [EAc]4 | (c2 e2-) |1,2 %13
 x4 :|3 x- [E^Ge]3- || [EGe]2 [ce]2 | [Be]2 [Ac]2 | [Bd]4 | [Ac]2 [GA]2 | [GB]4 | [GB]2 [GAc]2 | %21
 [GBd]4 | [Gce]2 [Ac^f]2 | [Bdg]4- | [Bdg]2 [_Bd=f]2 | [FAc]2 [CG_B]2 | [FAc]4 | [G_B]2 [_B,FG]2 | %28
 [FA]4 | [FA]2 [FG_B]2 | [FAc]4 | [F_Bd]2 [GB=e]2 | [Acf]4- | [Acf]2 z2 || ([Ad]2 [Af]2 | %35
 [Ae]2 [^ca]2) | (fe d2 | [^GBe]2) ([Ac]2 | [^GBe]2) ([Ac]2 | [EB]2 [^Ge]2 | [Ec]2 [EA-]2) | %41
 [FAB-]2 [E^GB]2 | [EAc]2 [FAd]2 | [EAc]4- | [EAc]4 | (c2 e2-) | x4 || ([EA]2 [Ec]2 | %48
 [EB]2 [^Ge]2 | [Ec]2 [EA]2 | [^GB]2) ([^D^F]2 | [E^GB]2) ([^D^F]2 | [EB]2 [^Ge]2 | [Ec]2 [EA-]2) | %54
 [FAB-]2 [E^GB]2 | [EAc]2 [FAd]2 | [EAc]4- | [EAc]4 | ([EGc]4 | [E^GBe]4) | [EAce]4- | [EAce]4 |] %62
V:4
 z |:!p! (C2 A,2 | ^G,2 E,2 | A,2 C2 | E2) (B,2 | E,2) (B,,2 | ^G,,2 E,,2 | A,,2 C,2) | D,2 E,2 | %9
 A,,2 D,,2 | A,,4- | A,,4 | x4 |1,2 x4 :|3!>(! x- [E,,E,]3-!>)! || [E,,E,]2!f! [C,,C,]2 | %16
 [G,,G,]4- | [G,,G,]4 | [G,,G,]4- | [G,,G,]4 | G,2"^cresc sempre""^cresc. sempre" C,2 | G,4 | %22
 G,2 C,2 | G,4- | [G,,G,]2!f! ([_B,,,_B,,]2 | [F,,F,]4-) | [F,,F,]4 | [F,,F,]4- | [F,,F,]4 | %29
!<(! F,2 _B,,2 | F,4 | F,2!<)! _B,,2 | F,4- | [F,,F,]2 z2 ||!p! (F2 D2 | ^C2 A,2) | (D2 F2 | %37
 E2) (A,2 | E,2) (A,,2 | ^G,,2 E,,2 | A,,2 C,2) | D,2 E,2 | A,,2 D,,2 | A,,4- | A,,4 | %45
!>(! ([C,,C,]4!>)! | [E,,E,]4) ||!p! (C2 A,2 | ^G,2 E,2 | A,2 C2 | E2) (B,2 | E,2) (B,,2 | %52
"^dim." ^G,,2 E,,2 | A,,2 C,2) | D,2 E,2 | A,,2 D,,2 | A,,4- | A,,4 | ([C,,C,]2 [E,,E,]2-) | %59
 [E,,E,]4 | [A,,,A,,]4- |!ppp! [A,,,A,,]4 |] %62
V:5
 x |: x4 | x4 | x4 | x4 | x4 | x4 | x4 | x4 | x4 | x4 | x4 | ([E-G]4 |1,2 [E^Ge]4) :|3 x4 || x4 | %16
 =G2 C2 | G4 | G2 C2 | x4 | x4 | x4 | x4 | x4 | x4 | x4 | x4 | F2 x2 | x4 | x4 | x4 | x4 | x4 | %33
 x4 || x4 | x4 | A2 A2 | x4 | x4 | x4 | x4 | x4 | x4 | x4 | x4 | ([E-G]4 | [E^Ge]4) || x4 | x4 | %49
 x4 | x4 | x4 | x4 | x4 | x4 | x4 | x4 | x4 | x4 | x4 | x4 | x4 |] %62
V:6
 x |: x4 | x4 | x4 | x4 | x4 | x4 | x4 | x4 | x4 | x4 | x4 | ([C,,C,]4 |1,2 [E,,E,]4) :|3 x4 || %15
 x4 | x4 | x4 | x4 | x4 | G,,4- | G,,4 | G,,4- | G,,4- | x4 | x4 | x4 | x4 | x4 | F,,4- | F,,4 | %31
 F,,4- | F,,4- | x4 || x4 | x4 | x4 | x4 | x4 | x4 | x4 | x4 | x4 | x4 | x4 | x4 | x4 || x4 | x4 | %49
 x4 | x4 | x4 | x4 | x4 | x4 | x4 | x4 | x4 | x4 | x4 | x4 | x4 |] %62

